% File: placeholder.mp

beginfig(-1);
verbatimtex
%&latex
\documentclass{article}
\usepackage{color}
\begin{document}
etex;

label.rt(btex place holder etex, (0,0));

endfig;
verbatimtex
\end{document}
etex
end
